assets/icons/24px/outline/store-24px.svg

<svg width="24" height="24" viewBox="0 0 24 24" fill="none" xmlns="http://www.w3.org/2000/svg">
<path d="M5.5 11.9091C5.5 11.3568 5.05228 10.9091 4.5 10.9091C3.94772 10.9091 3.5 11.3568 3.5 11.9091H5.5ZM19.5 11L20.5 11L20.5 10H19.5V11ZM3.5 21C3.5 21.5523 3.94772 22 4.5 22C5.05228 22 5.5 21.5523 5.5 21H3.5ZM9 11V10H8L8 11L9 11ZM9 17L8 17L9 17ZM18.9142 20.4142L18.2071 19.7071L18.9142 20.4142ZM18.5 11L18.5 17L20.5 17L20.5 11L18.5 11ZM5.5 21V11.9091H3.5V21H5.5ZM15.5 20H13V22H15.5V20ZM10 17L10 11L8 11L8 17L10 17ZM9 12H19.5V10H9V12ZM13 20C12.0289 20 11.4012 19.9979 10.9387 19.9357C10.505 19.8774 10.369 19.7833 10.2929 19.7071L8.87868 21.1214C9.38834 21.631 10.0167 21.8298 10.6722 21.9179C11.299 22.0022 12.0855 22 13 22V20ZM8 17C8 17.9146 7.99788 18.7011 8.08214 19.3278C8.17027 19.9833 8.36902 20.6117 8.87868 21.1214L10.2929 19.7071C10.2168 19.631 10.1226 19.4951 10.0643 19.0613C10.0021 18.5988 10 17.9711 10 17L8 17ZM18.5 17C18.5 17.9711 18.4979 18.5988 18.4357 19.0613C18.3774 19.4951 18.2832 19.631 18.2071 19.7071L19.6213 21.1214C20.131 20.6117 20.3297 19.9833 20.4179 19.3278C20.5021 18.7011 20.5 17.9146 20.5 17L18.5 17ZM15.5 22C16.4145 22 17.201 22.0022 17.8278 21.9179C18.4833 21.8298 19.1117 21.631 19.6213 21.1214L18.2071 19.7071C18.131 19.7833 17.995 19.8774 17.5613 19.9357C17.0988 19.9979 16.4711 20 15.5 20V22Z" fill="white"/>
<path d="M16.3839 3H7.61606C6.34674 3 5.71208 3 5.21333 3.32619C4.71458 3.65238 4.4602 4.23383 3.95143 5.39672L3.23773 7.02804C3.168 7.18742 3.13314 7.26711 3.10551 7.34876C3.05414 7.50058 3.0212 7.65803 3.00742 7.81772C3 7.90359 3 7.99058 3 8.16455C3 8.94222 3 9.33106 3.10668 9.64446C3.30665 10.232 3.76804 10.6933 4.35554 10.8933C4.66894 11 5.05778 11 5.83546 11H18.1645C18.9422 11 19.3311 11 19.6445 10.8933C20.232 10.6933 20.6933 10.232 20.8933 9.64446C21 9.33106 21 8.94222 21 8.16455C21 7.99058 21 7.90359 20.9926 7.81772C20.9788 7.65803 20.9459 7.50058 20.8945 7.34876C20.8669 7.26711 20.832 7.18742 20.7623 7.02804L20.0486 5.39673C19.5398 4.23383 19.2854 3.65238 18.7867 3.32619C18.2879 3 17.6533 3 16.3839 3Z" stroke="white" stroke-width="2" stroke-linecap="round" stroke-linejoin="round"/>
<path d="M12 11V8M7 11V8M17 11V8" stroke="white" stroke-width="2" stroke-linecap="round" stroke-linejoin="round"/>
</svg>

<svg width="24" height="24" fill="none" xmlns="http://www.w3.org/2000/svg"><path d="M5.5 11.91a1 1 0 1 0-2 0h2zm14-.91h1v-1h-1v1zm-16 10a1 1 0 1 0 2 0h-2zM9 11v-1H8v1h1zm0 6H8h1zm9.914 3.414l-.707-.707.707.707zM18.5 11v6h2v-6h-2zm-13 10v-9.09h-2V21h2zm10-1H13v2h2.5v-2zM10 17v-6H8v6h2zm-1-5h10.5v-2H9v2zm4 8c-.971 0-1.599-.002-2.061-.064-.434-.059-.57-.153-.646-.229l-1.414 1.414c.51.51 1.138.709 1.793.797.627.084 1.413.082 2.328.082v-2zm-5-3c0 .915-.002 1.701.082 2.328.088.655.287 1.284.797 1.793l1.414-1.414c-.076-.076-.17-.212-.229-.646C10.002 18.6 10 17.971 10 17H8zm10.5 0c0 .971-.002 1.599-.064 2.061-.059.434-.153.57-.229.646l1.414 1.414c.51-.51.709-1.138.797-1.793.084-.627.082-1.413.082-2.328h-2zm-3 5c.915 0 1.701.002 2.328-.082.655-.088 1.284-.287 1.793-.797l-1.414-1.414c-.076.076-.212.17-.646.229-.462.062-1.09.064-2.061.064v2z" fill="#fff"/><path d="M16.384 3H7.616c-1.27 0-1.904 0-2.403.326-.498.326-.753.908-1.262 2.07l-.713 1.632c-.07.16-.105.24-.132.32a2 2 0 0 0-.099.47C3 7.904 3 7.99 3 8.165c0 .777 0 1.166.107 1.48a2 2 0 0 0 1.249 1.248c.313.107.702.107 1.48.107h12.328c.778 0 1.167 0 1.48-.107a2 2 0 0 0 1.25-1.249C21 9.331 21 8.942 21 8.164c0-.173 0-.26-.007-.346a1.999 1.999 0 0 0-.098-.47c-.028-.08-.063-.16-.133-.32l-.713-1.631c-.51-1.163-.764-1.745-1.262-2.07C18.287 3 17.653 3 16.384 3zM12 11V8m-5 3V8m10 3V8" stroke="#fff" stroke-width="2" stroke-linecap="round" stroke-linejoin="round"/></svg>
